X:18
T:Hungarian Waltz. WI.018
T:When I Was A Lady. WI.018
M:3/8
L:1/16
Q:1/8=60
S:Wm Irwin, 1838 MS, AGG’s Transcription
R:.Waltz
O:England
A:Lake District
N:AGG says”see the simpler form in MS 42″..CGP.
Z:vmp.Chris Partington.2005
K:G
Bd|g2f2 Ae|e2d2 Bd|d2c2Ac|e2d2Bd|\
g2f2 ce|e2d2Bd|d2c2AF|G4:|
|:Bd|(3cdc A2c2|e2d2 Bd|(3cdc A2c2|e2d2″ etc”zz|]

